X: 396
T:Ma bouche rit (\`a 6)
N: Derived from Jos2914.2-Ma_bouche_rit--a_6.krn
C: Josquin des Prez
%%abc-version 2.0
%%abcx-abcm2ps-target-version 5.9.1 (29 Sep 2008)
%%abc-creator hum2abc beta
%%abcx-conversion-date 2019/02/12 16:15:55
%%abc-edited-by Jesse Rodin
%%abc-edited-by Will Watson 09/12/2011
%%abcx-initial-encoding-date 2012/01/23/
%%humdrum-veritas 1168614584
%%humdrum-veritas-data 102365727
%%linebreak <none>
%%barnumbers 0
L: 1/4
M: 2/1
Q: 1/2=120
V: 1 clef=treble
V: 2 clef=treble-8
V: 3 clef=treble-8
V: 4 clef=treble-8
V: 5 clef=bass
V: 6 clef=bass
K: C
[V:1] A8 | 
[V:2] z4A4 | 
[V:3] A4A4 | 
[V:4] A4A2A2 | 
[V:5] A,,4A,,4 | 
[V:6] z8 | 
[V:1] E4E4 | 
[V:2] A4A4 | 
[V:3] A4c4- | 
[V:4] c4z2A2 | 
[V:5] A,,4A,4 | 
[V:6] z8 | 
[V:1] A4A4 | 
[V:2] c6BA | 
[V:3] c2BAc3d | 
[V:4] A2A2e4 | 
[V:5] z2A,,2A,,2A,,2 | 
[V:6] A,8 | 
[V:1] G4G4 | 
[V:2] c2B2e4 | 
[V:3] e3dB2c2- | 
[V:4] z8 | 
[V:5] E,4z4 | 
[V:6] E,4E,4 | 
[V:1] c4c4 | 
[V:2] z4e4 | 
[V:3] cBAGA4 | 
[V:4] z2e2e2e2 | 
[V:5] z2A,,2A,,2A,,2 | 
[V:6] A,4A,4 | 
[V:1] B4c2d2- | 
[V:2] e3de2f2- | 
[V:3] E4z4 | 
[V:4] g4G2A2 | 
[V:5] E,4z4 | 
[V:6] G,3F,E,2D,2 | 
[V:1] d2c2A4 | 
[V:2] fee4d2 | 
[V:3] z8 | 
[V:4] B2c4BA | 
[V:5] z8 | 
[V:6] G,2A,2F,4 | 
[V:1] B4E4 | 
[V:2] e2B2c4 | 
[V:3] z2e2e2e2 | 
[V:4] G4z2e2 | 
[V:5] z2E,2C,2A,,2 | 
[V:6] E,8- | 
[V:1] z4G4 | 
[V:2] B8 | 
[V:3] g3fe4 | 
[V:4] e2e2g2e2 | 
[V:5] E,4z4 | 
[V:6] E,8 | 
[V:1] A4B4 | 
[V:2] z8 | 
[V:3] d2c2B4 | 
[V:4] f2a4^g2 | 
[V:5] z2A,2E,2E,2 | 
[V:6] z8 | 
[V:1] c6BA | 
[V:2] z2e2e2e2 | 
[V:3] A4z2c2 | 
[V:4] a4z2e2 | 
[V:5] A,2A,,2A,,2A,,2 | 
[V:6] A,8 | 
[V:1] B4E4 | 
[V:2] g4z4 | 
[V:3] B3AB4 | 
[V:4] e2e2g4 | 
[V:5] E,4z4 | 
[V:6] E,4E,4 | 
[V:1] E4D4 | 
[V:2] z2e2f2g2- | 
[V:3] A4z4 | 
[V:4] z2c2dcBA | 
[V:5] z8 | 
[V:6] A,4D,2G,2- | 
[V:1] E4F4 | 
[V:2] gfe4d2 | 
[V:3] z4z2A2 | 
[V:4] B2c2A4 | 
[V:5] z8 | 
[V:6] G,2A,2F,4 | 
[V:1] G6E2 | 
[V:2] e8 | 
[V:3] B2cBcBe2- | 
[V:4] G8 | 
[V:5] z2E,2E,2C,2 | 
[V:6] E,8 | 
[V:1] F4E4 | 
[V:2] z8 | 
[V:3] e2d2e4 | 
[V:4] z8 | 
[V:5] D,4A,,4 | 
[V:6] z4E,4 | 
[V:1] A4F2G2- | 
[V:2] c4d3c | 
[V:3] z8 | 
[V:4] z8 | 
[V:5] z8 | 
[V:6] F,6E,2 | 
[V:1] G2E2D4 | 
[V:2] B2A4^G2 | 
[V:3] z8 | 
[V:4] z8 | 
[V:5] z8 | 
[V:6] D,2C,2B,,4 | 
[V:1] C4z4 | 
[V:2] A8 | 
[V:3] z4e4 | 
[V:4] z2A2A2A2 | 
[V:5] A,2A,2A,2C2 | 
[V:6] A,,4z4 | 
[V:1] z4c4 | 
[V:2] z4z2e2 | 
[V:3] e4e4 | 
[V:4] c3de4 | 
[V:5] z2A,,2A,,2A,,2 | 
[V:6] A,8 | 
[V:1] B6G2 | 
[V:2] e2e2g3f | 
[V:3] g3fede2 | 
[V:4] z4B4 | 
[V:5] E,4z4 | 
[V:6] E,4E,4 | 
[V:1] A4G2A2 | 
[V:2] ede2z4 | 
[V:3] z2e2e2e2 | 
[V:4] c6c2 | 
[V:5] z2A,,2E,2A,,2 | 
[V:6] A,4z2A,2 | 
[V:1] B4c4 | 
[V:2] z2e2e2e2 | 
[V:3] g4z4 | 
[V:4] B4A4 | 
[V:5] E,4A,,4 | 
[V:6] E,2E,2A,4 | 
[V:1] B2G4A2- | 
[V:2] g3fe2d2 | 
[V:3] z2e2e2f2- | 
[V:4] z8 | 
[V:5] z8 | 
[V:6] z4z2D,2 | 
[V:1] A2G4F2 | 
[V:2] c3BA4 | 
[V:3] fee4d2 | 
[V:4] z8 | 
[V:5] z8 | 
[V:6] E,2E,2F,4 | 
[V:1] G8 | 
[V:2] G4z2e2 | 
[V:3] e4z4 | 
[V:4] z2e2e2e2 | 
[V:5] E,2E,2E,2G,2- | 
[V:6] E,8- | 
[V:1] z4G4- | 
[V:2] e2e2g3f | 
[V:3] z2B2B2B2 | 
[V:4] g3fede2 | 
[V:5] G,F,E,D,E,4 | 
[V:6] E,8 | 
[V:1] G4A4 | 
[V:2] ede2z4 | 
[V:3] c6c2 | 
[V:4] z4z2e2 | 
[V:5] z4z2A,,2 | 
[V:6] z4A,4 | 
[V:1] G2c4B2 | 
[V:2] z8 | 
[V:3] B2A2B4 | 
[V:4] e2e2g4 | 
[V:5] E,2A,,2E,4 | 
[V:6] E,4E,4 | 
[V:1] c4B2c2 | 
[V:2] z2efg2a2- | 
[V:3] A4z4 | 
[V:4] f2e3dc2 | 
[V:5] A,,4z4 | 
[V:6] A,4z4 | 
[V:1] d4c2A2- | 
[V:2] a2^g2a4- | 
[V:3] z4A2A2 | 
[V:4] B4A4- | 
[V:5] z4z2A,,2 | 
[V:6] z4z2A,2 | 
[V:1] A2GFE4 | 
[V:2] a4z4 | 
[V:3] A2c4A2 | 
[V:4] A4z4 | 
[V:5] A,,2A,,2A,4 | 
[V:6] A,2A,2C4 | 
[V:1] D2F2E4 | 
[V:2] z8 | 
[V:3] B2c3de2- | 
[V:4] z8 | 
[V:5] z2A,,2A,2E,2 | 
[V:6] B,2A,4G,2 | 
[V:1] z2A2B2c2 | 
[V:2] z8 | 
[V:3] e2d2e4 | 
[V:4] z4z2e2 | 
[V:5] A,4G,4 | 
[V:6] F,4E,4 | 
[V:1] d3cBAA2- | 
[V:2] z8 | 
[V:3] z8 | 
[V:4] f3ed2c2 | 
[V:5] z4z2A,2 | 
[V:6] z8 | 
[V:1] A2^G2A4- | 
[V:2] z2e2c2dc | 
[V:3] z8 | 
[V:4] B4A4 | 
[V:5] E,2E,2A,4 | 
[V:6] z2E,2F,3E, | 
[V:1] A4z4 | 
[V:2] BAA4^G2 | 
[V:3] z8 | 
[V:4] z8 | 
[V:5] z8 | 
[V:6] D,2C,2B,,4 | 
[V:1] z4E4 | 
[V:2] A8 | 
[V:3] z2e2c2e2- | 
[V:4] z4z2e2 | 
[V:5] z4z2A,,2 | 
[V:6] A,,4A,4 | 
[V:1] G3AB2B2 | 
[V:2] z4z2e2 | 
[V:3] edc2B4 | 
[V:4] e2e2g4 | 
[V:5] E,2A,,2E,4 | 
[V:6] E,4E,4 | 
[V:1] c4B2c2 | 
[V:2] e2e2g3f | 
[V:3] A4z4 | 
[V:4] z4z2e2 | 
[V:5] A,,4z4 | 
[V:6] A,4z4 | 
[V:1] d3cA4 | 
[V:2] d2f4e2- | 
[V:3] z8 | 
[V:4] f3ed2c2 | 
[V:5] z2D,2D,2A,,2 | 
[V:6] z4z2A,2 | 
[V:1] ^G4A4- | 
[V:2] edB2c2A2 | 
[V:3] z4A2A2 | 
[V:4] B4A4 | 
[V:5] E,4z2A,,2 | 
[V:6] E,2E,2A,4 | 
[V:1] A2GFE4 | 
[V:2] A2A2c4 | 
[V:3] A2c3dec | 
[V:4] z4z2c2 | 
[V:5] A,,2A,,2A,4 | 
[V:6] z8 | 
[V:1] D2E2FEDC | 
[V:2] z8 | 
[V:3] d2B2c2A2 | 
[V:4] B2G2A4 | 
[V:5] z8 | 
[V:6] z4z2A,2 | 
[V:1] B,2E4D2 | 
[V:2] z4z2A2 | 
[V:3] B4A4 | 
[V:4] E4z4 | 
[V:5] z8 | 
[V:6] G,2E,2F,4 | 
[V:1] E8- | 
[V:2] G2G2A4 | 
[V:3] z2B2c2A2 | 
[V:4] z4z2A2 | 
[V:5] z8 | 
[V:6] E,4z4 | 
[V:1] E8- | 
[V:2] E4z2c2 | 
[V:3] B4A4 | 
[V:4] B2B2c4 | 
[V:5] z2E,2C,2A,,2 | 
[V:6] z4z2A,2 | 
[V:1] E8- | 
[V:2] B2B2c4 | 
[V:3] z2e2e2e2 | 
[V:4] G4z2c2 | 
[V:5] E,4A,,4 | 
[V:6] G,2G,2A,4 | 
[V:1] E8- | 
[V:2] B2g2g2g2 | 
[V:3] g4z2c2 | 
[V:4] B2B2c4 | 
[V:5] z2E,2C,2A,,2 | 
[V:6] E,4z2A,2 | 
[V:1] E8- | 
[V:2] g2e2e2e2 | 
[V:3] B2B2c4 | 
[V:4] G4z2c2 | 
[V:5] E,4A,,4 | 
[V:6] G,2G,2A,4 | 
[V:1] E8- | 
[V:2] g8- | 
[V:3] B8- | 
[V:4] B2G2B3G | 
[V:5] z2E,2E,2E,2 | 
[V:6] E,8- | 
[V:1] E8 ||  
[V:2] g8 ||  
[V:3] B8 ||  
[V:4] G8 ||  
[V:5] G,8 ||  
[V:6] E,8 ||  
[V:1]  [K:C] [K:clef=treble][M:2/1]z8 | 
[V:2]  [K:C] [K:clef=treble-8][M:2/1]z4e4 | 
[V:3]  [K:C] [K:clef=treble-8][M:2/1]A4A2A2 | 
[V:4]  [K:C] [K:clef=treble-8][M:2/1]A4A4 | 
[V:5]  [K:C] [K:clef=bass][M:2/1]A,,4A,,4 | 
[V:6]  [K:C] [K:clef=bass][M:2/1]z8 | 
[V:1] z8 | 
[V:2] e4e4 | 
[V:3] c2A2A2A2 | 
[V:4] A4c4 | 
[V:5] A,,4A,4 | 
[V:6] A,8 | 
[V:1] B8 | 
[V:2] g6f2 | 
[V:3] e6d2 | 
[V:4] z4e4 | 
[V:5] z2G,2G,2G,2 | 
[V:6] E,4E,4 | 
[V:1] c4c4 | 
[V:2] e3dc4 | 
[V:3] c3BA4 | 
[V:4] e4e4 | 
[V:5] A,4A,,4 | 
[V:6] A,8 | 
[V:1] d4d4 | 
[V:2] B3GG4 | 
[V:3] G4z2d2 | 
[V:4] g6f2 | 
[V:5] z8 | 
[V:6] z8 | 
[V:1] G4A4 | 
[V:2] z2e2e2e2 | 
[V:3] c2B2A4 | 
[V:4] e3dc4 | 
[V:5] z4z2A,2 | 
[V:6] z8 | 
[V:1] B4c3B | 
[V:2] g4f2e2- | 
[V:3] G4z2c2 | 
[V:4] B4z4 | 
[V:5] E,2E,2A,4 | 
[V:6] z4A,4 | 
[V:1] G4z4 | 
[V:2] edc2B4 | 
[V:3] B2e3dB2 | 
[V:4] z8 | 
[V:5] z2G,2G,2G,2 | 
[V:6] E,4E,4 | 
[V:1] A8 | 
[V:2] A4z2A2 | 
[V:3] c8 | 
[V:4] z2A2A2A2 | 
[V:5] A,4A,,4 | 
[V:6] A,8 | 
[V:1] A4A4 | 
[V:2] A2A2c4 | 
[V:3] A2A2A2c2- | 
[V:4] c4z2A2 | 
[V:5] z4A,,4 | 
[V:6] z2A,2A,2A,2 | 
[V:1] A6GF | 
[V:2] z8 | 
[V:3] cde2A2A2 | 
[V:4] A2A2c4 | 
[V:5] A,,4A,,4 | 
[V:6] C4z2A,2 | 
[V:1] E4E4 | 
[V:2] z8 | 
[V:3] A2c3dec | 
[V:4] z4z2A2 | 
[V:5] A,8 | 
[V:6] A,2A,2C4 | 
[V:1] D4E4 | 
[V:2] z8 | 
[V:3] d2G2c2B2 | 
[V:4] B2d2c2e2- | 
[V:5] z8 | 
[V:6] z2B,2A,2G,2 | 
[V:1] F4G4 | 
[V:2] z4z2E2 | 
[V:3] A4G4 | 
[V:4] e2d2e4 | 
[V:5] z8 | 
[V:6] F,4E,4- | 
[V:1] E3CC4 | 
[V:2] E2E2A4 | 
[V:3] z2A2A2A2 | 
[V:4] z4z2A2 | 
[V:5] z8 | 
[V:6] E,2A,,2A,,4 | 
[V:1] E2F2G4 | 
[V:2] z8 | 
[V:3] c6B2 | 
[V:4] A2A2e4 | 
[V:5] z2A,2E,2E,2 | 
[V:6] z8 | 
[V:1] E2F4D2 | 
[V:2] z2A2A2A2 | 
[V:3] A3GF4 | 
[V:4] z4z2a2 | 
[V:5] A,4z4 | 
[V:6] z8 | 
[V:1] E4A,4 | 
[V:2] c4z2A2 | 
[V:3] E2A2A2A2 | 
[V:4] g2e2f4 | 
[V:5] z8 | 
[V:6] z4A,4 | 
[V:1] z4c4- | 
[V:2] A2A2c3d | 
[V:3] c4z2A2 | 
[V:4] e8- | 
[V:5] z2A,,2A,,2A,,2 | 
[V:6] A,4A,4 | 
[V:1] c4c4 | 
[V:2] e2cdefg2- | 
[V:3] A2A2c4 | 
[V:4] e8 | 
[V:5] A,4z4 | 
[V:6] C6B,2 | 
[V:1] c4B4 | 
[V:2] gffeg2e2- | 
[V:3] z2A2B2G2 | 
[V:4] z4E4 | 
[V:5] z8 | 
[V:6] A,4G,4 | 
[V:1] c2d3cBA | 
[V:2] edf3cd2 | 
[V:3] A6GA | 
[V:4] A4A4 | 
[V:5] z2D,2A,2F,2 | 
[V:6] F,3E,F,4 | 
[V:1] G3AB2c2- | 
[V:2] e8 | 
[V:3] B2e2e2e2 | 
[V:4] G6E2 | 
[V:5] G,3E,E,4 | 
[V:6] E,8 | 
[V:1] c2BAc2B2- | 
[V:2] z2g2g3f | 
[V:3] g3fe2d2 | 
[V:4] E8 | 
[V:5] z8 | 
[V:6] z2E,2C,3D, | 
[V:1] BAA4^G2 | 
[V:2] e2d2e4 | 
[V:3] c2A2B4 | 
[V:4] z8 | 
[V:5] z4z2E,2 | 
[V:6] E,2F,2E,4 | 
[V:1] A8- | 
[V:2] c4z2F2 | 
[V:3] A8- | 
[V:4] z2A2A2A2 | 
[V:5] E,2C,2D,4 | 
[V:6] A,,4z2D,2 | 
[V:1] A8- | 
[V:2] E2E2F4 | 
[V:3] A8- | 
[V:4] c2A2A2A2 | 
[V:5] A,,4z2D,2 | 
[V:6] C,2C,2D,4 | 
[V:1] A8- | 
[V:2] E2A2A2A2 | 
[V:3] A8- | 
[V:4] c4z2F2 | 
[V:5] C,2A,,2D,3C, | 
[V:6] A,,4z2D,2 | 
[V:1] A8- | 
[V:2] c2A2A2A2 | 
[V:3] A8- | 
[V:4] E2E2F4 | 
[V:5] A,,4z2D,2 | 
[V:6] C,2C,2D,4 | 
[V:1] A8- | 
[V:2] c8- | 
[V:3] A8- | 
[V:4] E8- | 
[V:5] C,2A,,2C,3A,, | 
[V:6] A,,8- | 
[V:1] A8 |]  
[V:2] c8 |]  
[V:3] A8 |]  
[V:4] E8 |]  
[V:5] A,,8 |]  
[V:6] A,,8 |]  



